X:11
T:Garrett Barry's
C:Traditional
T:In D Dorian, from Kevin Burke's playing
R:Jig
M:6/8
L:1/8
K:Ddor
DCD G3 | AGA c3 | dcA d2e | fed cAG |
FEF GFG | AGA cde | dcA GEA |[1 DED A,3 :|[2 DED D3 |]
|: dcA d2e | fag f2e | dcA c2d | egd ecA |
dcA d2e | fag f2e | dcA GEA | DED D3 :|

